!!!!SEGMENT: pl-wnifc--6855-n--002_nowakowski-jozef--niebieskie-oczy-tys-mi-kiedys-przymowila.krn
!!!cenid: 18xx:4067
!!!COM: Nowakowski, Józef
!!!COM-rismID: pe175316
!!!CDT: 1880/09/16-1865/08/27
!!!CNT: Polish
!!!OTL: Niebieskie oczy/Tyś mi kiedyś przymówiła
!!!PDT:
!!!AGN:
!!!SMS-siglum: PL-Wnifc
!!!SMS-shelfmark: 6855/n
!!!SMS-shelfwork: 002 W
!!!SMS-variant:
!!!SMS-altvar:
!!!NIFC-rismSourceID: 1001124887
!!!NIFC-rismChildID: 1001124887
!!!NIFC-islandoraID: nifc:214718
!!!URL-pdf-islandora: https://repozytorium.nifc.pl/islandora/object/nifc%3A214718/datastream/PDF/view
!!!URL-scan: https://polish.musicsources.pl/pl/lokalizacje/galeria/klocki-introligatorskie/690-without-title/52 @EN{Scan on Polish Music Sources Website} @PL{Skany w portalu Dziedzictwo Muzyki Polskiej w otwartym dostępie}
!!!IIIF:
!!!ONB-nifc: UWAGA: skany 49-51
!!!OMD: Moderato assai.
!!!AIN: 1 piano 1 vox
!!!key: F
**kern	**fing	**kern	**fing	**dynam	**kern	**text	**text	**dynam
*part2	*part2	*part2	*part2	*part2	*part1	*part1	*part1	*part1
*staff3	*staff3	*staff2	*staff2	*	*staff1	*staff1	*staff1	*
*I"Piano.	*	*I"Piano.	*	*	*I"Głos.	*	*	*
*	*	*I'	*	*	*I'	*	*	*
*Ipiano	*	*Ipiano	*	*	*Ivox	*	*	*
*ICklav	*	*ICklav	*	*	*ICvox	*	*	*
*IGacmp	*	*IGacmp	*	*	*IGsolo	*	*	*
*clefF4	*	*clefG2	*	*	*clefG2	*	*	*
*k[b-]	*	*k[b-]	*	*	*k[b-]	*	*	*
*F:	*	*F:	*	*	*F:	*	*	*
*M3/4	*	*M3/4	*	*	*M3/4	*	*	*
=1	=1	=1	=1	=1	=1	=1	=1	=1
*^	*	*	*	*	*	*	*	*
*ped	*	*	*	*	*	*	*	*	*
8r	2.FF\	.	(>8a/L	.	p	2.r	.	.	.
(<8C/L	.	.	8b-/	.	.	.	.	.	.
8F/	.	.	8a/	.	.	.	.	.	.
8C/	.	.	8g/	.	.	.	.	.	.
8A/	.	.	8f/	.	.	.	.	.	.
8C/J)	.	.	8a/J	.	.	.	.	.	.
*Xped	*	*	*	*	*	*	*	*	*
=2	=2	=2	=2	=2	=2	=2	=2	=2	=2
*ped	*	*	*	*	*	*	*	*	*
8r	2.FF\	.	8g/L	.	.	2.r	.	.	.
(<8C/L	.	.	8d/J	.	.	.	.	.	.
8G/	.	.	4.e/	.	.	.	.	.	.
8C/	.	.	.	.	.	.	.	.	.
8B-/	.	.	.	.	.	.	.	.	.
8C/J)	.	.	8c/)	.	.	.	.	.	.
*Xped	*	*	*	*	*	*	*	*	*
!!LO:LB:g=original
=3	=3	=3	=3	=3	=3	=3	=3	=3	=3
*ped	*	*	*	*	*	*	*	*	*
8r	2.FF\	.	(>8a/L	.	.	2.r	.	.	.
.	.	.	8qcc/	.	.	.	.	.	.
(<8C/L	.	.	8b-/	.	.	.	.	.	.
8F/	.	.	8a/	.	.	.	.	.	.
8C/	.	.	8g/	.	.	.	.	.	.
8A/	.	.	8f/	.	.	.	.	.	.
8C/J)	.	.	8a/J	.	.	.	.	.	.
*Xped	*	*	*	*	*	*	*	*	*
=4	=4	=4	=4	=4	=4	=4	=4	=4	=4
*ped	*	*	*	*	*	*	*	*	*
8r	2.FF\	.	8g/L	.	.	2.r	.	.	.
(<8C/L	.	.	8d/J	.	.	.	.	.	.
.	.	.	(16qqd/LL	.	.	.	.	.	.
.	.	.	16qqf/JJ)	.	.	.	.	.	.
8G/	.	.	4.e/	.	.	.	.	.	.
8C/	.	.	.	.	.	.	.	.	.
8B-/	.	.	.	.	.	.	.	.	.
8C/J)	.	.	8c/)	.	.	.	.	.	.
*Xped	*	*	*	*	*	*	*	*	*
=5	=5	=5	=5	=5	=5	=5	=5	=5	=5
8r	2.AA\	.	(>4c/	.	.	2.r	.	.	.
(<8C/L	.	.	.	.	.	.	.	.	.
8F/	.	.	8d/L	.	.	.	.	.	.
8A/	.	.	8e/	.	.	.	.	.	.
8F/	.	.	8f/	.	.	.	.	.	.
8C/J)	.	.	8f#X/J)	.	.	.	.	.	.
!!LO:LB:g=original
=6	=6	=6	=6	=6	=6	=6	=6	=6	=6
.	.	.	(>16qqg/LL	.	.	.	.	.	.
.	.	.	16qqa/JJ	.	.	.	.	.	.
8r	2.BB-\	.	8g/L	.	<	2.r	.	.	.
(<8D/L	.	.	8f#X/	.	.	.	.	.	.
8G/	.	.	8g/	.	.	.	.	.	.
8B-/	.	.	8b-/	.	.	.	.	.	.
8G/	.	.	8.ee^/	.	.	.	.	.	.
8D/J)	.	.	.	.	.	.	.	.	.
.	.	.	16dd/Jk	.	.	.	.	.	.
=7	=7	=7	=7	=7	=7	=7	=7	=7	=7
*	*	*	*^	*	*	*	*	*	*
4A/	[>2C\	.	8cc/L	4ryy	.	.	2.r	.	.	.
.	.	.	8c/J)	.	.	.	.	.	.	.
4c/	.	.	4a/	4f\	.	p	.	.	.	.
8B-/L	4C\]	.	8g/L	4e\	.	.	.	.	.	.
8c/J	.	.	8a/J	.	.	.	.	.	.	.
*	*	*	*v	*v	*	*	*	*	*	*
=8	=8	=8	=8	=8	=8	=8	=8	=8	=8
2A/	2F\	.	2f/	.	.	2.r	.	.	.
4C 4FF/	4ryy	.	4f 4A/	.	.	.	.	.	.
*v	*v	*	*	*	*	*	*	*	*
=9	=9	=9	=9	=9	=9	=9	=9	=9
2C 2FF;</	.	2f 2A;/	.	.	2.r;	.	.	.
4r	.	4r	.	.	.	.	.	.
!!LO:PB:g=original
=10||	=10||	=10||	=10||	=10||	=10||	=10||	=10||	=10||
!!!OMD: Cantabile.
*	*	*	*	*	*	*v:1	*v:2	*
!	!	!	!	!	!LO:TX:a:t=[segno|larger]:rj	!	!	!
!LO:TX:b:t=[segno|larger]:rj	!	!LO:TX:a:t=[segno|larger]:rj	!	!	!LO:TX:b:t=[segno|larger]:rj	!	!	!
4FF/	.	4r	.	p	8a/	Tyś	Więc	.
.	.	.	.	.	8dd\	mi	gdy	.
4r	.	4f 4A/	.	.	4.cc\	kie-	szu-	.
4C/	.	4f 4A/	.	.	.	.	.	.
.	.	.	.	.	8f/	-dyś	-kam	.
=11	=11	=11	=11	=11	=11	=11	=11	=11
4GG/	.	4r	.	.	8e/	przy-	na-	.
.	.	.	.	.	8f/	-mó-	-tchnień	.
4r	.	4f 4B-/	.	.	4a/	-wi-	Nie-	.
4C/	.	4e 4B-/	.	.	4g/	-ła	-ba	.
=12	=12	=12	=12	=12	=12	=12	=12	=12
4CC/	.	4r	.	.	8b-\	Żem	I	.
.	.	.	.	.	8ee\	o-	za-	.
4r	.	4g 4e 4B-/	.	.	4.dd\	-pie-	-pu-	.
4C/	.	4g 4e 4B-/	.	.	.	.	.	.
.	.	.	.	.	8g/	-wał	-szczę	.
!!LO:LB:g=original
=13	=13	=13	=13	=13	=13	=13	=13	=13
2FF/	.	4r	.	.	8a/	czar-	myśl	.
.	.	.	.	.	8b-\	-ne	sze-	.
.	.	4f 4Bn 4G#X/	.	.	4dd\	o-	-ro-	.
4F\	.	4f 4c 4A/	.	.	4cc\	-czy	-ko	.
=14	=14	=14	=14	=14	=14	=14	=14	=14
*	*	*^	*	*	*	*	*	*
(4FF/	.	[2f/	4A\	.	.	8a/	Cho-	Wte-	.
.	.	.	.	.	.	8cc\	-ciaż	-dy	.
4GG/	.	.	4B-X\	.	.	4.ff\	Two-	nie	.
8GG#X/L	.	8f/L]	8Bn\L	.	.	.	.	.	.
8AA/J	.	8e/J	8c\J	.	.	8ee\	-ich	mi	.
*	*	*v	*v	*	*	*	*	*	*
=15	=15	=15	=15	=15	=15	=15	=15	=15
4BB-/	.	8gL 8e 8c#X/	.	.	8ee\	ró-	już	.
.	.	8fJ 8d/	.	.	8dd\	-wna	nie-	.
4AA/	.	4f#X 4d 4cn/	.	.	4cc\	si-	-trze-	.
4GG/)	.	4g 4d 4B-/	.	.	4b-\	-ła;	-ba,	.
=16	=16	=16	=16	=16	=16	=16	=16	=16
2CC/	.	4r	.	.	8a/	A	Gdy	.
.	.	.	.	.	8g/	z_nią	w_Nie-	.
.	.	2g 2e 2B-/	.	.	4.ee\	ró-	-bie-	.
4C/	.	.	.	.	.	.	.	.
.	.	.	.	.	8dd\	-wny	-skie	.
!!LO:LB:g=original
=17	=17	=17	=17	=17	=17	=17	=17	=17
*^	*	*^	*	*	*	*	*	*
4r	2.FF\	.	2.f/	(>8B-\L	.	.	8dd\	blask	spoj-	.
.	.	.	.	8A\J	.	.	8cc\	u-	-rzę	.
(<4D/	.	.	.	4A-X\	.	.	4bn\	-ro-	o-	.
4D-X/)	.	.	.	4G\)	.	.	4b-X\	-czy,	-ko,	.
*v	*v	*	*	*	*	*	*	*	*	*
=18	=18	=18	=18	=18	=18	=18	=18	=18	=18
4C 4FF/	.	4f/	4A\	.	.	8a/	I	W_któ-	.
.	.	.	.	.	.	8f/	są	-re	.
4r	.	4r	4ryy	.	.	4.cc\	tak-	kraj	.
4F 4AA/	.	4cc/	4c/	.	.	.	.	.	.
.	.	.	.	.	.	8a/	-że	nasz	.
*	*	*v	*v	*	*	*	*	*	*
=19	=19	=19	=19	=19	=19	=19	=19	=19
*^	*	*	*	*	*	*	*	*
8F#X/L	2.BB-\	.	8ccL 8e-X/	.	.	8a/	wdzię-	tak	.
8G/J	.	.	8b-J 8d/	.	.	8g/	-ków	bo-	.
4A/	.	.	4f#X 4c/	.	.	4f#X/	zbio-	-ga-	.
4B-/	.	.	4g 4d/	.	.	4g/	-rem	-ty	.
=20	=20	=20	=20	=20	=20	=20	=20	=20	=20
4B-/	4C\	.	4g 4en/	.	.	8g/	Choć	Z_któ-	.
.	.	.	.	.	.	8a/	nie-	-rych	.
4r	4ryy	.	4r	.	.	4b-\	-bie-	du-	.
4C/	4C\	.	4g 4e 4B-/	.	.	4g/	-skim	-mne	.
!!LO:LB:g=original
=21	=21	=21	=21	=21	=21	=21	=21	=21	=21
*	*^	*	*^	*	*	*	*	*	*
2.F/	4r	2.FF\	.	2.f/	8B-\L	.	.	8dd\	lśnią	na-	.
.	.	.	.	.	8A\J	.	.	8cc\	ko-	-sze	.
.	4D/	.	.	.	4A-X\	.	.	4bn\	-lo-	cha-	.
.	4D-X/	.	.	.	4G\	.	.	4b-X\	-rem,	-ty	.
*	*v	*v	*	*	*	*	*	*	*	*	*
*	*	*	*v	*v	*	*	*	*	*	*
=22	=22	=22	=22	=22	=22	=22	=22	=22	=22
4C/	4FF\	.	4f 4A/	.	.	8a/	I	W_któ-	.
.	.	.	.	.	.	8cc\	są	-rę	.
8r	2ryy	.	8r	.	.	4.ff\	tak-	kraj	.
8FL 8FF/	.	.	8aL 8f 8A/	.	.	.	.	.	.
8G 8GG/	.	.	8b- 8f 8B-/	.	.	.	.	.	.
8AJ 8AA/	.	.	8ccJ 8f 8c/	.	.	8a/	-że	nasz	.
=23	=23	=23	=23	=23	=23	=23	=23	=23	=23
8AL 8F#X/	2.BB-\	.	8ccL 8e-/	.	.	8a/	wdzię-	tak	.
8G/J	.	.	8b-J 8d/	.	.	8g/	-ków	bo-	.
4A/	.	.	4f# 4c/	.	.	4f#X/	zbio-	-ga-	.
4B-/	.	.	4g 4d/	.	.	4g/	-rem	-ty	.
!!LO:PB:g=original
=24	=24	=24	=24	=24	=24	=24	=24	=24	=24
*	*	*	*^	*	*	*	*	*	*
4B-/	4C\	.	(<8a/L	4en 4c\	.	.	8a/	Choć	Z_któ-	.
.	.	.	8g/J)	.	.	.	8g/	nie-	-rych	.
2C 2CC/	2ryy	.	2g 2e 2B-/	2ryy	.	.	4.b-/	-bie-	du-	.
.	.	.	.	.	.	.	8e/	-skim	-mne	.
*v	*v	*	*	*	*	*	*	*	*	*
*	*	*v	*v	*	*	*	*	*	*
=25	=25	=25	=25	=25	=25	=25	=25	=25
8C 8FF/	.	8g 8e 8B-/	.	.	8g/	lśnią	na-	.
8r	.	8r	.	.	8f/	ko-	-sze	.
4.C 4.FF/	.	4.f 4.A/	.	.	4a/	-lo-	cha-	.
.	.	.	.	.	4f/	-rem.	-ty.	.
8r	.	8cc\	.	.	.	.	.	.
=26	=26	=26	=26	=26	=26	=26	=26	=26
4CC/	.	(8cc\L	.	f	2.r	.	.	.
.	.	8cc#X\	.	.	.	.	.	.
(4B- 4E\	.	8ee\	.	.	.	.	.	.
.	.	8dd\	.	.	.	.	.	.
4C/)	.	8b-\	.	.	.	.	.	.
.	.	8g\J	.	.	.	.	.	.
=27	=27	=27	=27	=27	=27	=27	=27	=27
*^	*^	*	*	*	*	*	*	*
8r	4FF\	.	.	8b-/L	.	.	2.r	.	.	.
8F/L	.	.	.	8a/	.	.	.	.	.	.
8E/	4BB-\	.	5	8g/	.	.	.	.	.	.
8D/	.	.	.	8f/	.	.	.	.	.	.
8G/	4BBn\	.	5	8e/	.	.	.	.	.	.
8G#X/J	.	.	.	8d/J	.	.	.	.	.	.
*	*	*v	*v	*	*	*	*	*	*	*
!!LO:LB:g=original
=28	=28	=28	=28	=28	=28	=28	=28	=28	=28
*	*	*	*^	*	*	*	*	*	*
(4A/	[4C\	.	(8c/L	2ryy	.	.	2.r	.	.	.
.	.	.	8a/J))	.	.	.	.	.	.	.
4F/)	4C\]	.	4a/	.	.	.	.	.	.	.
4E 4CC/	4ryy	.	(<8e/L	4B-\	.	p	.	.	.	.
.	.	.	8c/J)	.	.	.	.	.	.	.
*v	*v	*	*	*	*	*	*	*	*	*
=29	=29	=29	=29	=29	=29	=29	=29	=29	=29
4.F 4.FF/	.	4f/	4A\	.	.	2.r	.	.	.
.	.	4r	2ryy	.	.	.	.	.	.
!	!	!LO:TX:b:i:t=rallent.	!	!	!	!	!	!	!
8FL 8FF/	.	.	.	.	.	.	.	.	.
8E 8EE/	.	4r	.	.	.	.	.	.	.
8E-XJ 8EE-X/	.	.	.	.	.	.	.	.	.
*	*	*v	*v	*	*	*	*	*	*
=30	=30	=30	=30	=30	=30	=30	=30	=30
*^	*	*	*	*	*	*	*	*
!	!	!	!LO:TX:b:B:t=a tempo.	!	!	!	!	!	!
8D 8DD/	8ryy	.	8r	.	.	8d/	A	Kto	.
(8F#X/L	[8D\	.	(8dd\L	.	.	8d/	więc	więc	.
8G/	2D\]	.	8cc#X\	.	.	8e/	te-	tyl-	.
8A/	.	.	8ccn\	.	.	8f#X/	-raz	-ko	.
8B-/	.	.	8b-\	.	.	8g/	wy-	raz	.
8c/J)	.	.	8a\J)	.	.	8a/	-znam	w_swem	.
=31	=31	=31	=31	=31	=31	=31	=31	=31	=31
4B-/	4G\	.	(8g\L	.	.	2b-\	To-	ży-	.
.	.	.	8b-\	.	.	.	.	.	.
4r	2ryy	.	8dd\	.	.	.	.	.	.
.	.	.	8gg\J)	.	.	.	.	.	.
4G 4GG/	.	.	[4bb-\	.	.	4g/	-bie	-ciu	.
*v	*v	*	*	*	*	*	*	*	*
!!LO:LB:g=original
=32	=32	=32	=32	=32	=32	=32	=32	=32
.	.	.	.	.	16qqg/LL	.	.	.
.	.	.	.	.	16qqa/JJ	.	.	.
*ped	*	*	*	*	*	*	*	*
!	!	!	!	!LO:DY:t=p dolce	!	!	!	!
4E-X 4EE-X/	.	(8bb-\L]	.	p	8g/	Gdy	Na-	.
.	.	8aa\	.	.	8f#X/	tę-	-po-	.
*clefG2	*	*	*	*	*	*	*	*
!	!	!	!	!	!LO:TX:a:i:t=rallent.	!	!	!
4dd 4d'/	.	8bb-\	.	.	8g/	-skno-	-tka-	.
.	.	8gg\	.	.	8b-/	-ta	-wszy	.
4dd 4d'/	.	8ff\	.	.	8a/	du-	to	.
.	.	8ee-X\J)	.	.	8g/	-szę	spoj-	.
*Xped	*	*	*	*	*	*	*	*
*clefF4	*	*	*	*	*	*	*	*
=33	=33	=33	=33	=33	=33	=33	=33	=33
*ped	*	*	*	*	*	*	*	*
4B- 4BB-\	.	(4ee-X\	.	.	4g/	zmro-	-rze-	.
*clefG2	*	*	*	*	*	*	*	*
4b- 4B-/	.	4dd\)	.	.	4fn/	-czy,	-nie,	.
4b- 4B-/	.	4r	.	.	4r	.	.	.
*Xped	*	*	*	*	*	*	*	*
*clefF4	*	*	*	*	*	*	*	*
=34	=34	=34	=34	=34	=34	=34	=34	=34
*^	*	*	*	*	*	*	*	*
8FF/	8ryy	.	8r	.	.	8f/	Ni-	Pu-	.
(8A/L	[8F\	.	(8ff\L	.	.	8f/	-by	-ści	.
8B-/	2F\]	.	8een\	.	.	8g/	w_tę-	wo-	.
8c/	.	.	8ee-X\	.	.	8a/	-czę	-dze	.
8d/	.	.	8dd\	.	.	8b-\	w_o-	ser-	.
8e-X/J)	.	.	8cc\J)	.	.	8cc\	-wej	-ca	.
!!LO:LB:g=original
=35	=35	=35	=35	=35	=35	=35	=35	=35	=35
4d/	4B-\	.	(8b-\L	.	.	2dd\	do-	bi-	.
.	.	.	8dd\	.	.	.	.	.	.
4BB-/	2ryy	.	8ff\	.	.	.	.	.	.
.	.	.	8bb-\J)	.	.	.	.	.	.
4r	.	.	4ddd\	.	.	4b-\	-bie	-ciu	.
=36	=36	=36	=36	=36	=36	=36	=36	=36	=36
!	!	!	!	!	!	!LO:TX:a:i:t=agitato	!	!	!
8GG/	8ryy	.	8r	.	.	8g/	Pa-	Wnet	.
(8Bn/L	[8G\	.	(8gg\L	.	.	8g/	-trzę	po-	.
8c/	2G\]	.	8ff#X\	.	.	8a/	tyl-	-czu-	.
8d/	.	.	8ffn\	.	.	8bn\	-ko	-je	.
8e-X/	.	.	8ee-X\	.	.	8cc\	w_czar-	i	.
8f/J)	.	.	8dd\J)	.	.	8dd\	-ne	na-	.
=37	=37	=37	=37	=37	=37	=37	=37	=37	=37
4e-X/	4c\	.	(8cc\L	.	.	2ee-X\	o-	-tchnie-	.
.	.	.	8ee-X\	.	.	.	.	.	.
4C/	2ryy	.	8gg\	.	.	.	.	.	.
.	.	.	8ccc\J)	.	.	.	.	.	.
4r	.	.	4eee-X\	.	.	4cc\	-czy	-nie	.
!!LO:PB:g=original
=38	=38	=38	=38	=38	=38	=38	=38	=38	=38
8AA/	8ryy	.	8r	.	.	8a/	By	I	.
(8c#X/L	[8A\	.	(8aa\L	.	<	8a/	o-	za-	<
8d/	2A\]	.	8gg#X\	.	.	8bn\	-gni-	-śpie-	.
8e/	.	.	8ggn\	.	.	8cc#X\	-ste	-wa	.
8f/	.	.	8ff\	.	.	8dd\	ich	słów	.
8g/J)	.	.	8ee\J)	.	.	8ee\	pło-	po-	.
=39	=39	=39	=39	=39	=39	=39	=39	=39	=39
8f/	8d\	.	8ff\	.	.	2ff\	-mie-	-to-	.
8r	8ryy	.	8r	.	.	.	.	.	.
4D 4DD/	2ryy	.	4aa 4ff 4a\	.	.	.	.	.	.
4C 4CC/	.	.	4aa 4ee 4a\	.	.	4ee\	-nie,	-kiem	.
*v	*v	*	*	*	*	*	*	*	*
=40	=40	=40	=40	=40	=40	=40	=40	=40
*	*	*^	*	*	*	*	*	*
*	*	*	*^	*	*	*	*	*	*
2BB- 2BBB-/	.	2aa/	8ee\L	2a\	.	f	8ee\	Roz-	Nad	f
.	.	.	8dd\J	.	.	.	8dd\	-pro-	twem	.
!	!	!LO:TX:b:i:t=rallent.	!	!	!	!	!LO:TX:a:i:t=rallent.	!	!	!
.	.	.	8.ee\L	.	.	.	8.ee\	-szy-	ser-	.
.	.	.	16dd\Jk	.	.	.	16dd\	-ły	-cem	.
4BB- 4BBB-/	.	4gg#X/	8.ee\L	4g#X\	.	.	8.ee\	ich	nad	.
.	.	.	16dd\Jk	.	.	.	16dd\	pro-	twem	.
*	*	*v	*v	*v	*	*	*	*	*	*
!!LO:LB:g=original
=41	=41	=41	=41	=41	=41	=41	=41	=41
!	!	!LO:TX:a:B:t=a tempo.	!	!	!LO:TX:a:B:t=a tempo.	!	!	!
4AA 4AAA/	.	4aa 4cc#X 4a\	.	.	4cc#X\	-mie-	o-	.
4E 4AA/	.	4a 4c#X/	.	p	4a/	-nie,	-kiem,	.
4E 4AA/	.	4a 4c#/	.	.	4r	.	.	.
=42	=42	=42	=42	=42	=42	=42	=42	=42
*	*	*^	*	*	*	*	*	*
4E 4BB-/	.	8g/L	4d\	.	.	8g/	By	I	.
.	.	8a/J	.	.	.	8a/	o-	za-	.
4E 4GG/	.	4b-/	4d\	.	.	8.b-\	-gni-	-śpie-	.
.	.	.	.	.	.	16b-\	-ste	-wa	.
4E 4BB-/	.	4g/	4d\	.	.	8.ee\	ich	słów	.
.	.	.	.	.	.	16dd\	pro-	po-	.
=43	=43	=43	=43	=43	=43	=43	=43	=43	=43
4E 4AA/	.	16aLL 16c#X/	2ryy	.	.	4cc#X\	-mie-	-to-	.
*	*	*	*	*below	*	*	*	*	*
.	.	16a/	.	1	.	.	.	.	.
.	.	16aa/	.	5	.	.	.	.	.
.	.	16aa/JJ	.	1	.	.	.	.	.
4r	.	8aaa\	.	.	.	4a/	-nie	-kiem.	.
.	.	8r	.	.	.	.	.	.	.
4E 4AA/	.	8a/L	4c#\	.	.	4r	.	.	.
.	.	8g/J	.	.	.	.	.	.	.
=44	=44	=44	=44	=44	=44	=44	=44	=44	=44
*^	*	*	*	*	*	*	*	*	*
4D 4BB-/	2ryy	.	4f/	4d\	.	.	8dd\	Roz-	Nad	.
!	!	!	!	!	!	!LO:HP:t=decrescendo.	!	!	!	!LO:HP:t=decrescendo.
.	.	.	.	.	.	>	8dd\	-pro-	twem	>
4F 4BB-/	.	.	4b-/	4d\	.	.	8cc\	-szy-	ser-	.
.	.	.	.	.	.	.	8b-\	-ły	-cem	.
8D/L	4BB-\	.	8a/L	4d\	.	.	8a/	smut-	nad	.
8E/J	.	.	8g#X/J	.	.	.	8g#X/	-ku	twem	.
*v	*v	*	*	*	*	*	*	*	*	*
!!LO:LB:g=original
=45	=45	=45	=45	=45	=45	=45	=45	=45	=45
!	!	!LO:TX:b:i:t=rallent.	!	!	!	!LO:TX:a:i:t=rallent.	!	!	!
2E 2AA/	.	2a/	2c#X\	.	.	2a/	cie-	o-	.
4E 4GG/	.	4b-/	4cn\	.	.	4b-\	-nie,	-kiem,	.
*	*	*v	*v	*	*	*	*	*	*
=46	=46	=46	=46	=46	=46	=46	=46	=46
*^	*	*	*	*	*	*	*	*
*ped	*	*	*	*	*	*	*	*	*
!	!	!	!LO:TX:a:B:t=a tempo.	!	!	!LO:TX:a:B:t=a tempo.	!	!	!
(<8F/L	2.FF\	.	8r	.	pp	8a/	Boć	Ka-	.
8C/	.	.	(8c/L	.	.	8dd\	jak	-żdy	.
!	!	!	!	!	!	!LO:TX:a:i:t=dol.	!	!	!
8A/	.	.	8cc 8f/	.	.	4.cc\	ka-	za-	.
8C/	.	.	8c/J	.	.	.	.	.	.
8A/	.	.	8ccL 8f/	.	.	.	.	.	.
8C/J)	.	.	8c/J)	.	.	8f/	-żda	-tem	.
*Xped	*	*	*	*	*	*	*	*	*
=47	=47	=47	=47	=47	=47	=47	=47	=47	=47
*ped	*	*	*	*	*	*	*	*	*
8r	2.GG\	.	8r	.	.	8e/	po-	przy-	.
(<8C/L	.	.	(8c/L	.	.	8f/	-ra	-zna	.
8B-/	.	.	8cc 8f/	.	.	4a/	ro-	z_lu-	.
8C/J	.	.	8c/J	.	.	.	.	.	.
8B-/L	.	.	8ccL 8e/	.	.	4g/	-ku,	-dzi	.
8C/J)	.	.	8c/J)	.	.	.	.	.	.
*Xped	*	*	*	*	*	*	*	*	*
=48	=48	=48	=48	=48	=48	=48	=48	=48	=48
*ped	*	*	*	*	*	*	*	*	*
8r	2.CC\	.	8r	.	.	8b-\	Ma	Że	.
(<8E/L	.	.	(8c/L	.	.	8ee\	swe	twój	.
8B-/	.	.	8cc 8g/	.	.	4.dd\	in-	try-	.
8E/	.	.	8c/	.	.	.	.	.	.
8B-/	.	.	8cc 8g/	.	.	.	.	.	.
8E/J)	.	.	8c/J)	.	.	8g/	-ne	-umf	.
*Xped	*	*	*	*	*	*	*	*	*
!!LO:LB:g=original
=49	=49	=49	=49	=49	=49	=49	=49	=49	=49
*ped	*	*	*	*	*	*	*	*	*
8r	2.FF\	.	8r	.	.	8a/	przy-	rzecz	.
(<8F/L	.	.	(8c/L	.	.	8b-\	-zna-	nie	.
8A/	.	.	8cc 8f/	.	.	4dd\	-cze-	no-	.
8F/	.	.	8c/	.	.	.	.	.	.
8A/	.	.	8cc 8f/	.	.	4cc\	-nie	-wa.	.
8F/J)	.	.	8c/J)	.	.	.	.	.	.
*Xped	*	*	*	*	*	*	*	*	*
=50	=50	=50	=50	=50	=50	=50	=50	=50	=50
*ped	*	*	*	*	*	*	*	*	*
8r	2.FF\	.	8r	.	.	8a/	Tak	Czar-	.
(<8C/L	.	.	(8f\L	.	.	8cc\	na	-ne	.
8A/	.	.	8ff 8cc\	.	.	4.ff\	wza-	o-	.
8c/	.	.	8f\	.	.	.	.	.	.
8A/	.	.	8ff 8cc\	.	.	.	.	.	.
8C/J)	.	.	8f\J)	.	.	8ee\	-jem	-ko	.
*Xped	*	*	*	*	*	*	*	*	*
=51	=51	=51	=51	=51	=51	=51	=51	=51	=51
8r	2.BB-\	.	8r	.	.	8ee\	w_ka-	pło-	.
(<8F/	.	.	(8d/L	.	.	8dd\	-żdem	-mień	.
4F#X/	.	.	8cc 8a/	.	.	4cc\	o-	bu-	.
.	.	.	8e-X/	.	.	.	.	.	.
4G/)	.	.	8b- 8g/	.	.	4b-\	-ku	-dzi,	.
.	.	.	8d/J)	.	.	.	.	.	.
!!LO:PB:g=original
=52	=52	=52	=52	=52	=52	=52	=52	=52	=52
*ped	*	*	*	*	*	*	*	*	*
8r	2.CC\	.	8r	.	.	8a/	Tu-	A	.
(<8E/L	.	.	(8c/L	.	.	8g/	-taj	nie-	.
8B-/	.	.	8cc 8g/	.	.	4.ee\	o-	-bie-	.
8E/	.	.	8c/	.	.	.	.	.	.
8B-/	.	.	8cc 8g/	.	.	.	.	.	.
8E/J)	.	.	8c/J)	.	.	8dd\	-gień	-skie	.
*Xped	*	*	*	*	*	*	*	*	*
=53	=53	=53	=53	=53	=53	=53	=53	=53	=53
8FF\L	4ryy	.	8r	.	.	8dd\	tam	wie-	.
[8F\J	.	.	8cc 8a 8c/	.	.	8cc\	na-	-szcze	.
2F/]	4D\	.	8r	.	.	4bn\	-tchnie-	sło-	.
.	.	.	8bn 8g#X 8Bn/	.	.	.	.	.	.
.	4D-X\	.	8r	.	.	4b-X\	-nie,	-wa,	.
.	.	.	8b-X 8gn 8B-X/	.	.	.	.	.	.
=54	=54	=54	=54	=54	=54	=54	=54	=54	=54
2F 2C/	2FF\	.	8r	.	.	8a/	Tyl-	Cóż	.
.	.	.	(8A/L	.	.	8f/	-ko	więc	.
.	.	.	8c/	.	.	4.cc\	wszę-	wo-	.
.	.	.	8f/	.	.	.	.	.	.
4E-X/	4FF#X\	.	8a/	.	.	.	.	.	.
.	.	.	8c/J)	.	.	8a/	-dy	-lisz	.
!!LO:LB:g=original
=55	=55	=55	=55	=55	=55	=55	=55	=55	=55
2D/	2GG\	.	8r	.	.	8a/	je-	czy	.
.	.	.	(8B-/L	.	.	8g/	-dna	pło-	.
.	.	.	8d/	.	.	4f#X/	si-	-mie-	.
.	.	.	8B-/J	.	.	.	.	.	.
4D-X/	4FF\	.	8b-/L	.	.	4g/	-ła,	-nie,	.
.	.	.	8B-/J)	.	.	.	.	.	.
=56	=56	=56	=56	=56	=56	=56	=56	=56	=56
2.C/	2EE\	.	8r	.	.	8g/	Co	Czy-	.
.	.	.	(8c/L	.	.	8a/	już	-li	.
.	.	.	8g 8B-/	.	.	4b-/	ty-	świę-	.
.	.	.	8c/J	.	.	.	.	.	.
.	4CC\	.	8eL 8B-/	.	.	4g/	-le	-te	.
.	.	.	8c/J)	.	.	.	.	.	.
=57	=57	=57	=57	=57	=57	=57	=57	=57	=57
*	*	*	*^	*	*	*	*	*	*
8r	2.FF\	.	8r	8ryy	.	.	8dd\	serc	dusz	>
8C/	.	.	(8cc/	8a 8f\	.	.	8cc\	pod-	na-	.
4D/	.	.	4bn/	8r	.	.	4bn\	-bi-	-tchnie-	.
.	.	.	.	8a-X 8f\	.	.	.	.	.	.
4D-X/	.	.	4b-X/)	8r	.	.	4b-X\	-ła,	-nie,	]
.	.	.	.	8g 8e\	.	.	.	.	.	.
*v	*v	*	*	*	*	*	*	*	*	*
*	*	*v	*v	*	*	*	*	*	*
=58	=58	=58	=58	=58	=58	=58	=58	=58
4C 4FF/	.	4a 4f/	.	.	8a/	Tyl-	Cóż	.
.	.	.	.	.	8cc\	-ko	więc	.
8r	.	8r	.	.	4.ff\	wszę-	wo-	.
8FL 8FF/	.	8aL 8f 8A/	.	.	.	.	.	.
8G 8GG/	.	8b- 8f 8B-/	.	.	.	.	.	.
8AJ 8AA/	.	8ccJ 8f 8c/	.	.	8a/	-dy	-lisz	.
!!LO:LB:g=original
=59	=59	=59	=59	=59	=59	=59	=59	=59
*^	*	*	*	*	*	*	*	*
(<8AL 8F#X/	2.BB-\	.	(8ccL 8e-X/	.	.	8a/	je-	czy	.
8G/J)	.	.	8b-J 8d/)	.	.	8g/	-dna	pło-	.
4A/	.	.	4f#X 4c/	.	.	4f#X/	si-	-mie-	.
4B-/	.	.	4g 4d/	.	.	4g/	-ła,	-nie,	.
=60	=60	=60	=60	=60	=60	=60	=60	=60	=60
*	*	*	*^	*	*	*	*	*	*
4B-/	4C\	.	(<8a/L	4en 4c\	.	.	8a/	Co	Czy-	.
.	.	.	8g/J)	.	.	.	8g/	już	-li	.
2C 2CC/	2ryy	.	2g/	2e 2B-\	.	.	4.b-/	ty-	świę-	.
.	.	.	.	.	.	.	8e/	-le	-te	.
*v	*v	*	*	*	*	*	*	*	*	*
*	*	*v	*v	*	*	*	*	*	*
=61	=61	=61	=61	=61	=61	=61	=61	=61
8CL 8FF'/	.	8gL 8B-'/	.	.	8g/	serc	dusz	.
8CJ 8FF'/	.	8fJ 8A'/	.	.	8f/	pod-	na-	.
4C 4FF'/	.	4a 4c'/	.	.	4a/	-bi-	-tchnie-	.
4C 4FF'/	.	4f 4A'/	.	.	4f/	-ła.	-nie.	.
!!LO:LB:g=original
=62	=62	=62	=62	=62	=62	=62	=62	=62
*ped	*	*	*	*	*	*	*	*
4CC/	.	(8cccL 8cc\	.	f	2.r	.	.	.
.	.	8ccc#X 8cc#X\	.	.	.	.	.	.
4B- 4E\	.	8eee 8ee\	.	.	.	.	.	.
.	.	8ddd 8dd\	.	.	.	.	.	.
4C/	.	8bb- 8b-\	.	.	.	.	.	.
.	.	8ggJ 8g\	.	.	.	.	.	.
*Xped	*	*	*	*	*	*	*	*
=63	=63	=63	=63	=63	=63	=63	=63	=63
*^	*	*	*	*	*	*	*	*
8r	4FF\	.	8bb-L 8b-\	.	.	2.r	.	.	.
8F/L	.	.	8aa 8a\	.	.	.	.	.	.
8E/	4BB-\	.	8gg 8g\	.	.	.	.	.	.
8D/	.	.	8ff 8f\	.	.	.	.	.	.
8G/	4BBn\	.	8ee 8e\	.	.	.	.	.	.
8G#X/J	.	.	8ddJ 8d\)	.	.	.	.	.	.
=64	=64	=64	=64	=64	=64	=64	=64	=64	=64
*	*	*	*^	*	*	*	*	*	*
(4A/	[4C\	.	(8ccL 8c\	2ryy	.	.	2.r	.	.	.
.	.	.	8aaJ 8a\)	.	.	.	.	.	.	.
8F/)	8C\]	.	8aa 8a\	.	.	.	.	.	.	.
8r	8ryy	.	8r	.	.	.	.	.	.	.
4E 4CC/	4ryy	.	(<8gg/L	4b-\	.	.	.	.	.	.
.	.	.	8cc/J)	.	.	.	.	.	.	.
*v	*v	*	*	*	*	*	*	*	*	*
=65	=65	=65	=65	=65	=65	=65	=65	=65	=65
2F 2FF/	.	2ff/	2a\	.	.	2.r	.	.	.
4C 4FF/	.	4f 4A/	4ryy	.	.	.	.	.	.
*	*	*v	*v	*	*	*	*	*	*
=66	=66	=66	=66	=66	=66	=66	=66	=66
2C 2FF;</	.	2f 2A;/	.	.	2.r;	.	.	.
4r	.	4r	.	.	.	.	.	.
==	==	==	==	==	==	==	==	==
*-	*-	*-	*-	*-	*-	*-	*-	*-
!!!system-decoration: <vox>{(klav)}
!!!RDF**kern: > = above
!!!RDF**kern: < = below
!!!ENC: Andrzej Gręziak
!!!END: 2022-08-18
!!!ENC: Andrzej Kubiczek
!!!END: 2022-09-18
!!!YEC: Copyright 2022 Narodowy Instytut Fryderyka Chopina (https://polishscores.org)
!!!YEM: License CC-BY-4.0 (https://creativecommons.org/licenses/by/4.0)
